src/components/Icon/assets/bot.svg

<svg width="24" height="24" viewBox="0 0 24 24" fill="none" xmlns="http://www.w3.org/2000/svg">
<path fill-rule="evenodd" clip-rule="evenodd" d="M12.0231 1.99988C13.6801 1.99988 15.0231 3.34288 15.0231 4.99988H9.02314C9.02314 3.34288 10.3661 1.99988 12.0231 1.99988ZM20.0002 19.998H4.00024C2.89596 19.998 2.00024 19.1023 2.00024 17.998V7.99799C2.00024 6.8937 2.89596 5.99799 4.00024 5.99799H20.0002C21.1045 5.99799 22.0002 6.8937 22.0002 7.99799V17.998C22.0002 19.1023 21.1045 19.998 20.0002 19.998ZM20.0002 17.998V7.99799H4.00024V17.998H20.0002ZM6.74158 12.9722C6.74158 14.7592 7.16358 15.4882 8.17358 15.4882C9.18358 15.4882 9.60558 14.7592 9.60558 12.9722C9.60558 11.1862 9.18358 10.4572 8.17358 10.4572C7.16358 10.4572 6.74158 11.1862 6.74158 12.9722ZM15.8538 15.4882C14.8438 15.4882 14.4218 14.7592 14.4218 12.9722C14.4218 11.1862 14.8438 10.4572 15.8538 10.4572C16.8638 10.4572 17.2858 11.1862 17.2858 12.9722C17.2858 14.7592 16.8638 15.4882 15.8538 15.4882Z" fill="#65676A"/>
</svg>

<svg xmlns="http://www.w3.org/2000/svg" width="24" height="24" viewBox="0 0 24 24">
    <path fill="#65676A" fill-rule="evenodd" d="M20 5.998c1.104 0 2 .896 2 2v10c0 1.104-.896 2-2 2H4c-1.104 0-2-.896-2-2v-10c0-1.104.896-2 2-2h16zm0 2H4v10h16v-10zm-11.826 2.46c1.01 0 1.431.728 1.431 2.514 0 1.787-.421 2.516-1.431 2.516s-1.432-.729-1.432-2.516c0-1.786.421-2.515 1.432-2.515zm7.68 0c1.01 0 1.432.728 1.432 2.514 0 1.787-.422 2.516-1.432 2.516s-1.432-.729-1.432-2.516c0-1.786.422-2.515 1.432-2.515zM12.024 2c1.656 0 3 1.343 3 3h-6c0-1.657 1.342-3 3-3z"/>
</svg>
